X:1
T:Flora, The Lily of the West.
F:http://www.folkinfo.org/songs
B:Songs of the West by S. Baring-Gould.
S:Version from Matthew Baker.
M:4/4
L:1/4
K:F
F|F G A d|(^cd) A3/2 G1/2|F G D F|F3 F|
w:'Twas when I came to Eng-*land, some plea-sures for to find, There
F G A d|(^cd) A3/2 G1/2|F G D F|G3 c|
w:I es-pied a dam-*sel most pleas-ing to my mind; Her
c c A c|f f d3/2 c1/2|B B d c|(d2c3/2) F1/2|
w:ro-sy cheeks and shin-ing eyes as ar-rows pierced my breast, *Her
F G A d|(^cd) A3/2 G1/2|F G D F|F3 z||
w:name was love-ly Flo-*ra, the Li ly of the West.